X: 106
T: Meili de sailimu The beautiful Sajram                       (Name)
%%abc-version 2.0
%%abcx-abcm2ps-target-version 5.9.1 (29 Sep 2008)
%%abc-creator hum2abc beta
%%abcx-conversion-date 2013/10/02 07:44:27
%%abc-edited-by Helmut Schaffrath
%%humdrum-veritas 463779887
%%humdrum-veritas-data 3535925638
%%continueall 1
%%barnumbers 0
L: 1/8
M: 6/8
K: C
c c d e> e d [I:setbarnb 1]| 
c> d e G> G G | 
e> e e/ d< c A/ G/ A/ | 
G3-G3 | 
c2AG2D | 
E2DC2C | 
G2A/ c< G E/ D/ E/ | 
C3-C3 | 
c3e3 | 
c> d eG3 | 
e2d c> A G/ A/ | 
G3-G3 | 
c2AG2D | 
E2DC2C | 
G2A/ c< G E/ D/ E/ | 
C3-C3 |]  



